src/pos-icons/toy-brick-minus.svg

<svg height="24" viewBox="0 0 24 24" width="24" xmlns="http://www.w3.org/2000/svg"><path d="m19 6v-1a2 2 0 0 0 -2-2h-2a2 2 0 0 0 -2 2v1h-2v-1a2 2 0 0 0 -2-2h-2a2 2 0 0 0 -2 2v1h-2v14h10v-4h8v-10m2 14h-8v-2h8z"/></svg>

<?xml version="1.0" encoding="UTF-8"?><!DOCTYPE svg PUBLIC "-//W3C//DTD SVG 1.1//EN" "http://www.w3.org/Graphics/SVG/1.1/DTD/svg11.dtd"><svg xmlns="http://www.w3.org/2000/svg" xmlns:xlink="http://www.w3.org/1999/xlink" version="1.1" id="mdi-toy-brick-minus" width="24" height="24" viewBox="0 0 24 24"><path d="M19 6V5A2 2 0 0 0 17 3H15A2 2 0 0 0 13 5V6H11V5A2 2 0 0 0 9 3H7A2 2 0 0 0 5 5V6H3V20H13V16H21V6M23 20H15V18H23Z" /></svg>
